assets/icons/24px/outline/triangle-24px.svg

<svg width="24" height="24" viewBox="0 0 24 24" fill="none" xmlns="http://www.w3.org/2000/svg">
<path d="M3.94721 18.1056L3.05279 17.6584L3.94721 18.1056ZM3.26738 20.5257L4.11803 20L3.26738 20.5257ZM20.7326 20.5257L21.5833 21.0515L20.7326 20.5257ZM10.2111 5.5777L9.31672 5.13049L10.2111 5.5777ZM12 3.23607L12 2.23607L12 3.23607ZM4.84164 18.5528L11.1056 6.02492L9.31672 5.13049L3.05279 17.6584L4.84164 18.5528ZM12.8944 6.02492L19.1584 18.5528L20.9472 17.6584L14.6833 5.1305L12.8944 6.02492ZM18.2639 20H5.73607V22H18.2639V20ZM3.05279 17.6584C2.74344 18.2771 2.45784 18.8423 2.30373 19.3133C2.14503 19.7983 2.03813 20.4389 2.41673 21.0515L4.11803 20C4.20352 20.1383 4.11222 20.2175 4.20456 19.9353C4.30148 19.639 4.50236 19.2313 4.84164 18.5528L3.05279 17.6584ZM5.73607 20C4.97741 20 4.52292 19.9973 4.21463 19.9516C3.92093 19.9079 4.03255 19.8617 4.11803 20L2.41673 21.0515C2.79533 21.664 3.41611 21.8549 3.92087 21.9299C4.41105 22.0027 5.04434 22 5.73607 22V20ZM19.1584 18.5528C19.4976 19.2313 19.6985 19.639 19.7954 19.9353C19.8878 20.2175 19.7965 20.1383 19.882 20L21.5833 21.0515C21.9619 20.4389 21.855 19.7983 21.6963 19.3133C21.5422 18.8423 21.2566 18.2771 20.9472 17.6584L19.1584 18.5528ZM18.2639 22C18.9557 22 19.589 22.0027 20.0791 21.9299C20.5839 21.8549 21.2047 21.664 21.5833 21.0515L19.882 20C19.9675 19.8617 20.0791 19.9079 19.7854 19.9516C19.4771 19.9973 19.0226 20 18.2639 20V22ZM11.1056 6.02492C11.5111 5.21394 11.7663 4.7094 11.9865 4.39381C12.211 4.07219 12.2023 4.23607 12 4.23607L12 2.23607C11.1797 2.23607 10.6668 2.79022 10.3465 3.24914C10.022 3.7141 9.69178 4.38038 9.31672 5.13049L11.1056 6.02492ZM14.6833 5.1305C14.3082 4.38038 13.978 3.7141 13.6535 3.24915C13.3332 2.79022 12.8203 2.23607 12 2.23607V4.23607C11.7977 4.23607 11.789 4.07218 12.0135 4.39381C12.2337 4.7094 12.4889 5.21394 12.8944 6.02492L14.6833 5.1305Z" fill="white"/>
</svg>

<svg width="24" height="24" fill="none" xmlns="http://www.w3.org/2000/svg"><path d="M3.947 18.106l-.894-.448.894.448zm-.68 2.42L4.118 20l-.85.526zm17.466 0l.85.526-.85-.526zM10.21 5.578l-.894-.448.894.448zM12 3.236v-1 1zM4.842 18.553l6.264-12.528-1.79-.895-6.263 12.528 1.789.895zm8.052-12.528l6.264 12.528 1.79-.895L14.682 5.13l-1.789.895zM18.264 20H5.736v2h12.528v-2zM3.053 17.658c-.31.62-.595 1.184-.75 1.655-.158.485-.265 1.126.114 1.739L4.118 20c.086.138-.006.218.087-.065.096-.296.297-.704.637-1.382l-1.79-.895zM5.736 20c-.759 0-1.213-.003-1.521-.048-.294-.044-.182-.09-.097.048l-1.701 1.052c.378.612 1 .803 1.504.878.49.073 1.123.07 1.815.07v-2zm13.422-1.447c.34.678.54 1.086.637 1.382.093.283.002.203.087.065l1.701 1.052c.379-.613.272-1.254.113-1.739-.154-.47-.44-1.036-.749-1.655l-1.789.895zM18.264 22c.692 0 1.325.003 1.815-.07.505-.075 1.126-.266 1.504-.878L19.882 20c.085-.138.197-.092-.097-.048-.308.045-.762.048-1.521.048v2zM11.106 6.025c.405-.811.66-1.316.88-1.631.225-.322.216-.158.014-.158v-2c-.82 0-1.333.554-1.653 1.013-.325.465-.655 1.131-1.03 1.881l1.789.895zm3.577-.895c-.375-.75-.705-1.416-1.03-1.88-.32-.46-.833-1.014-1.653-1.014v2c-.202 0-.211-.164.014.158.22.315.475.82.88 1.63l1.79-.894z" fill="#fff"/></svg>
